_assets/img/logo.svg

<?xml version="1.0" encoding="UTF-8"?>
<svg width="1155px" height="266px" viewBox="0 0 1155 266" version="1.1" xmlns="http://www.w3.org/2000/svg" xmlns:xlink="http://www.w3.org/1999/xlink">
    <!-- Generator: Sketch 46.2 (44496) - http://www.bohemiancoding.com/sketch -->
    <title>Slice</title>
    <desc>Created with Sketch.</desc>
    <defs></defs>
    <g id="Page-1" stroke="none" stroke-width="1" fill="none" fill-rule="evenodd">
        <path d="M0,89 L366,89 L366,235.084947 L366,235.084947 C366,247.547423 356.461281,257.936307 344.044088,258.99774 C289.433382,263.665913 235.75202,266 183,266 C130.24798,266 76.5666179,263.665913 21.955913,258.99774 L21.955913,258.997741 C9.53871959,257.936308 1.52621325e-15,247.547424 0,235.084947 L0,89 Z" id="Rectangle" fill="#FFFFFF"></path>
        <path d="M282.421493,3.56448446 C257.789364,5.29026751 233.791588,7.28075112 210.428164,9.53593527 L188.348209,56.88655 L261.183961,49.1085189 L282.421493,3.56448446 Z M313.143204,1.56900594 C322.268193,1.02195861 331.476662,0.509745317 340.768611,0.0323660512 L340.768611,0.032366965 C354.005986,-0.6477109 365.288311,9.53199 365.968389,22.7693653 C365.98946,23.1794906 366,23.5900891 366,24.0007552 L366,37.9153561 L292.536402,45.7604341 L313.143204,1.56900594 Z M179.135329,12.7561934 C156.583113,15.2235629 133.172043,18.1003573 108.902119,21.3865764 L87.3172343,67.6755109 L156.995768,60.2346348 L179.135329,12.7561927 Z M77.0217326,25.8668426 C58.5412034,28.5559876 39.5917578,31.46867 20.1733961,34.6048897 L20.1733961,34.6048897 C8.54631506,36.4827558 4.36478868e-07,46.5201151 4.36478864e-07,58.2978651 L0,58.2978651 L0,77 L55.9647929,71.0235956 L77.0217326,25.8668426 Z" id="Combined-Shape" fill="#FFFFFF"></path>
        <g id="s" transform="translate(132.000000, 130.000000)" fill-rule="nonzero" fill="#E81B39">
            <g id="c" transform="translate(30.000000, 0.000000)">
                <polygon id="t" transform="translate(28.080439, 26.012802) rotate(18.000000) translate(-28.080439, -26.012802) " points="15.665456 3.35484998 15.665456 48.6707541 40.4954224 48.6707541"></polygon>
                <g id="t-link" transform="translate(19.587816, 26.000000) scale(-1, 1) translate(-19.587816, -26.000000) translate(0.087816, 0.000000)">
                    <polygon id="t" transform="translate(19.276315, 26.012802) rotate(18.000000) translate(-19.276315, -26.012802) " points="6.86133145 3.35484998 6.86133145 48.6707541 31.6912978 48.6707541"></polygon>
                </g>
            </g>
            <g id="c-link" transform="translate(73.500000, 39.000000) rotate(72.000000) translate(-73.500000, -39.000000) translate(50.000000, 13.000000)">
                <g id="c" transform="translate(0.000000, 0.000000)">
                    <polygon id="t" transform="translate(27.576057, 26.040635) rotate(18.000000) translate(-27.576057, -26.040635) " points="15.3364736 3.35750763 15.3364736 48.7237628 39.8156403 48.7237628"></polygon>
                    <g id="t-link" transform="translate(19.432292, 26.000000) scale(-1, 1) translate(-19.432292, -26.000000) translate(0.432292, 0.000000)">
                        <polygon id="t" transform="translate(19.008349, 26.040635) rotate(18.000000) translate(-19.008349, -26.040635) " points="6.76876531 3.35750763 6.76876531 48.7237628 31.247932 48.7237628"></polygon>
                    </g>
                </g>
            </g>
            <g id="c-link" transform="translate(65.500000, 62.000000) rotate(144.000000) translate(-65.500000, -62.000000) translate(42.000000, 36.000000)">
                <g id="c" transform="translate(-0.000000, 0.000000)">
                    <polygon id="t" transform="translate(27.576057, 26.040635) rotate(18.000000) translate(-27.576057, -26.040635) " points="15.3364736 3.35750763 15.3364736 48.7237628 39.8156403 48.7237628"></polygon>
                    <g id="t-link" transform="translate(19.432292, 26.000000) scale(-1, 1) translate(-19.432292, -26.000000) translate(0.432292, 0.000000)">
                        <polygon id="t" transform="translate(19.008349, 26.040635) rotate(18.000000) translate(-19.008349, -26.040635) " points="6.76876531 3.35750763 6.76876531 48.7237628 31.247932 48.7237628"></polygon>
                    </g>
                </g>
            </g>
            <g id="c-link" transform="translate(40.500000, 62.000000) rotate(-144.000000) translate(-40.500000, -62.000000) translate(17.000000, 36.000000)">
                <g id="c">
                    <polygon id="t" transform="translate(27.576057, 26.040635) rotate(18.000000) translate(-27.576057, -26.040635) " points="15.3364736 3.35750763 15.3364736 48.7237628 39.8156403 48.7237628"></polygon>
                    <g id="t-link" transform="translate(19.432292, 26.000000) scale(-1, 1) translate(-19.432292, -26.000000) translate(0.432292, 0.000000)">
                        <polygon id="t" transform="translate(19.008349, 26.040635) rotate(18.000000) translate(-19.008349, -26.040635) " points="6.76876531 3.35750763 6.76876531 48.7237628 31.247932 48.7237628"></polygon>
                    </g>
                </g>
            </g>
            <g id="c-link" transform="translate(32.500000, 39.000000) rotate(-72.000000) translate(-32.500000, -39.000000) translate(9.000000, 13.000000)">
                <g id="c" transform="translate(-0.000000, 0.000000)">
                    <polygon id="t" transform="translate(27.576057, 26.040635) rotate(18.000000) translate(-27.576057, -26.040635) " points="15.3364736 3.35750763 15.3364736 48.7237628 39.8156403 48.7237628"></polygon>
                    <g id="t-link" transform="translate(19.432292, 26.000000) scale(-1, 1) translate(-19.432292, -26.000000) translate(0.432292, -0.000000)">
                        <polygon id="t" transform="translate(19.008349, 26.040635) rotate(18.000000) translate(-19.008349, -26.040635) " points="6.76876531 3.35750763 6.76876531 48.7237628 31.247932 48.7237628"></polygon>
                    </g>
                </g>
            </g>
        </g>
        <g id="s" transform="translate(16.000000, 129.000000)" fill-rule="nonzero" fill="#E81B39">
            <g id="c" transform="translate(30.000000, 0.000000)">
                <polygon id="t" transform="translate(28.080439, 26.012802) rotate(18.000000) translate(-28.080439, -26.012802) " points="15.665456 3.35484998 15.665456 48.6707541 40.4954224 48.6707541"></polygon>
                <g id="t-link" transform="translate(19.587816, 26.000000) scale(-1, 1) translate(-19.587816, -26.000000) translate(0.087816, 0.000000)">
                    <polygon id="t" transform="translate(19.276315, 26.012802) rotate(18.000000) translate(-19.276315, -26.012802) " points="6.86133145 3.35484998 6.86133145 48.6707541 31.6912978 48.6707541"></polygon>
                </g>
            </g>
            <g id="c-link" transform="translate(73.500000, 39.000000) rotate(72.000000) translate(-73.500000, -39.000000) translate(50.000000, 13.000000)">
                <g id="c" transform="translate(0.000000, 0.000000)">
                    <polygon id="t" transform="translate(27.576057, 26.040635) rotate(18.000000) translate(-27.576057, -26.040635) " points="15.3364736 3.35750763 15.3364736 48.7237628 39.8156403 48.7237628"></polygon>
                    <g id="t-link" transform="translate(19.432292, 26.000000) scale(-1, 1) translate(-19.432292, -26.000000) translate(0.432292, 0.000000)">
                        <polygon id="t" transform="translate(19.008349, 26.040635) rotate(18.000000) translate(-19.008349, -26.040635) " points="6.76876531 3.35750763 6.76876531 48.7237628 31.247932 48.7237628"></polygon>
                    </g>
                </g>
            </g>
            <g id="c-link" transform="translate(65.500000, 62.000000) rotate(144.000000) translate(-65.500000, -62.000000) translate(42.000000, 36.000000)">
                <g id="c" transform="translate(-0.000000, 0.000000)">
                    <polygon id="t" transform="translate(27.576057, 26.040635) rotate(18.000000) translate(-27.576057, -26.040635) " points="15.3364736 3.35750763 15.3364736 48.7237628 39.8156403 48.7237628"></polygon>
                    <g id="t-link" transform="translate(19.432292, 26.000000) scale(-1, 1) translate(-19.432292, -26.000000) translate(0.432292, 0.000000)">
                        <polygon id="t" transform="translate(19.008349, 26.040635) rotate(18.000000) translate(-19.008349, -26.040635) " points="6.76876531 3.35750763 6.76876531 48.7237628 31.247932 48.7237628"></polygon>
                    </g>
                </g>
            </g>
            <g id="c-link" transform="translate(40.500000, 62.000000) rotate(-144.000000) translate(-40.500000, -62.000000) translate(17.000000, 36.000000)">
                <g id="c">
                    <polygon id="t" transform="translate(27.576057, 26.040635) rotate(18.000000) translate(-27.576057, -26.040635) " points="15.3364736 3.35750763 15.3364736 48.7237628 39.8156403 48.7237628"></polygon>
                    <g id="t-link" transform="translate(19.432292, 26.000000) scale(-1, 1) translate(-19.432292, -26.000000) translate(0.432292, 0.000000)">
                        <polygon id="t" transform="translate(19.008349, 26.040635) rotate(18.000000) translate(-19.008349, -26.040635) " points="6.76876531 3.35750763 6.76876531 48.7237628 31.247932 48.7237628"></polygon>
                    </g>
                </g>
            </g>
            <g id="c-link" transform="translate(32.500000, 39.000000) rotate(-72.000000) translate(-32.500000, -39.000000) translate(9.000000, 13.000000)">
                <g id="c" transform="translate(-0.000000, 0.000000)">
                    <polygon id="t" transform="translate(27.576057, 26.040635) rotate(18.000000) translate(-27.576057, -26.040635) " points="15.3364736 3.35750763 15.3364736 48.7237628 39.8156403 48.7237628"></polygon>
                    <g id="t-link" transform="translate(19.432292, 26.000000) scale(-1, 1) translate(-19.432292, -26.000000) translate(0.432292, -0.000000)">
                        <polygon id="t" transform="translate(19.008349, 26.040635) rotate(18.000000) translate(-19.008349, -26.040635) " points="6.76876531 3.35750763 6.76876531 48.7237628 31.247932 48.7237628"></polygon>
                    </g>
                </g>
            </g>
        </g>
        <g id="s" transform="translate(248.000000, 129.000000)" fill-rule="nonzero" fill="#E81B39">
            <g id="c" transform="translate(30.000000, 0.000000)">
                <polygon id="t" transform="translate(28.080439, 26.012802) rotate(18.000000) translate(-28.080439, -26.012802) " points="15.665456 3.35484998 15.665456 48.6707541 40.4954224 48.6707541"></polygon>
                <g id="t-link" transform="translate(19.587816, 26.000000) scale(-1, 1) translate(-19.587816, -26.000000) translate(0.087816, 0.000000)">
                    <polygon id="t" transform="translate(19.276315, 26.012802) rotate(18.000000) translate(-19.276315, -26.012802) " points="6.86133145 3.35484998 6.86133145 48.6707541 31.6912978 48.6707541"></polygon>
                </g>
            </g>
            <g id="c-link" transform="translate(73.500000, 39.000000) rotate(72.000000) translate(-73.500000, -39.000000) translate(50.000000, 13.000000)">
                <g id="c" transform="translate(0.000000, 0.000000)">
                    <polygon id="t" transform="translate(27.576057, 26.040635) rotate(18.000000) translate(-27.576057, -26.040635) " points="15.3364736 3.35750763 15.3364736 48.7237628 39.8156403 48.7237628"></polygon>
                    <g id="t-link" transform="translate(19.432292, 26.000000) scale(-1, 1) translate(-19.432292, -26.000000) translate(0.432292, 0.000000)">
                        <polygon id="t" transform="translate(19.008349, 26.040635) rotate(18.000000) translate(-19.008349, -26.040635) " points="6.76876531 3.35750763 6.76876531 48.7237628 31.247932 48.7237628"></polygon>
                    </g>
                </g>
            </g>
            <g id="c-link" transform="translate(65.500000, 62.000000) rotate(144.000000) translate(-65.500000, -62.000000) translate(42.000000, 36.000000)">
                <g id="c" transform="translate(-0.000000, 0.000000)">
                    <polygon id="t" transform="translate(27.576057, 26.040635) rotate(18.000000) translate(-27.576057, -26.040635) " points="15.3364736 3.35750763 15.3364736 48.7237628 39.8156403 48.7237628"></polygon>
                    <g id="t-link" transform="translate(19.432292, 26.000000) scale(-1, 1) translate(-19.432292, -26.000000) translate(0.432292, 0.000000)">
                        <polygon id="t" transform="translate(19.008349, 26.040635) rotate(18.000000) translate(-19.008349, -26.040635) " points="6.76876531 3.35750763 6.76876531 48.7237628 31.247932 48.7237628"></polygon>
                    </g>
                </g>
            </g>
            <g id="c-link" transform="translate(40.500000, 62.000000) rotate(-144.000000) translate(-40.500000, -62.000000) translate(17.000000, 36.000000)">
                <g id="c">
                    <polygon id="t" transform="translate(27.576057, 26.040635) rotate(18.000000) translate(-27.576057, -26.040635) " points="15.3364736 3.35750763 15.3364736 48.7237628 39.8156403 48.7237628"></polygon>
                    <g id="t-link" transform="translate(19.432292, 26.000000) scale(-1, 1) translate(-19.432292, -26.000000) translate(0.432292, 0.000000)">
                        <polygon id="t" transform="translate(19.008349, 26.040635) rotate(18.000000) translate(-19.008349, -26.040635) " points="6.76876531 3.35750763 6.76876531 48.7237628 31.247932 48.7237628"></polygon>
                    </g>
                </g>
            </g>
            <g id="c-link" transform="translate(32.500000, 39.000000) rotate(-72.000000) translate(-32.500000, -39.000000) translate(9.000000, 13.000000)">
                <g id="c" transform="translate(-0.000000, 0.000000)">
                    <polygon id="t" transform="translate(27.576057, 26.040635) rotate(18.000000) translate(-27.576057, -26.040635) " points="15.3364736 3.35750763 15.3364736 48.7237628 39.8156403 48.7237628"></polygon>
                    <g id="t-link" transform="translate(19.432292, 26.000000) scale(-1, 1) translate(-19.432292, -26.000000) translate(0.432292, -0.000000)">
                        <polygon id="t" transform="translate(19.008349, 26.040635) rotate(18.000000) translate(-19.008349, -26.040635) " points="6.76876531 3.35750763 6.76876531 48.7237628 31.247932 48.7237628"></polygon>
                    </g>
                </g>
            </g>
        </g>
        <path d="M524.986,111.004 L524.986,70.5 L544.906,70.5 L544.906,195 L529.136,195 L526.48,186.534 C521.832,191.846 513.2,196.328 503.904,196.328 C483.818,196.328 473.526,182.882 473.526,160.638 L473.526,137.398 C473.526,115.154 483.652,101.874 503.406,101.874 C512.37,101.874 520.338,106.19 524.986,111.004 Z M524.986,170.1 L524.986,127.936 C521.168,123.952 515.192,120.632 509.05,120.632 C497.928,120.632 493.446,126.774 493.446,139.556 L493.446,158.646 C493.446,171.428 497.928,177.57 509.05,177.57 C515.192,177.57 521.168,174.084 524.986,170.1 Z M583.086,139.224 C583.086,128.434 586.738,119.636 599.852,119.636 C606.658,119.636 611.97,122.458 616.95,129.762 L630.396,118.64 C623.922,108.846 614.626,101.874 599.852,101.874 C575.782,101.874 563.166,115.652 563.166,137.564 L563.166,160.638 C563.166,182.55 576.28,196.328 600.35,196.328 C615.124,196.328 624.586,188.858 630.562,179.396 L618.112,168.274 C611.804,176.906 606.824,178.566 600.35,178.566 C587.236,178.566 583.086,169.768 583.086,158.978 L583.086,139.224 Z M680.362,195.83 C685.84,195.83 692.812,194.502 699.95,191.016 L695.8,175.91 C691.816,177.072 687.002,178.068 682.354,178.068 C675.05,178.068 672.394,175.08 672.394,167.942 L672.394,119.968 L696.464,119.968 L696.464,103.202 L672.394,103.202 L672.394,83.448 L652.806,85.606 L652.806,103.202 L637.202,104.198 L637.202,119.968 L652.474,119.968 L652.474,168.274 C652.474,186.036 660.442,195.83 680.362,195.83 Z M712.4,163.46 L712.4,137.398 C712.4,115.486 723.688,101.874 747.26,101.874 C771.33,101.874 781.622,114.988 781.622,137.398 L781.622,156.322 L732.32,156.322 L732.32,165.286 C732.32,172.258 736.636,179.064 748.754,179.064 C759.212,179.064 764.358,176.74 772.99,172.092 L779.63,186.866 C770.334,192.178 761.868,196.328 747.924,196.328 C724.186,196.328 712.4,183.878 712.4,163.46 Z M747.26,119.138 C735.308,119.138 732.32,125.446 732.32,140.718 L762.2,140.718 C762.2,126.276 759.378,119.138 747.26,119.138 Z M815.652,139.224 C815.652,128.434 819.304,119.636 832.418,119.636 C839.224,119.636 844.536,122.458 849.516,129.762 L862.962,118.64 C856.488,108.846 847.192,101.874 832.418,101.874 C808.348,101.874 795.732,115.652 795.732,137.564 L795.732,160.638 C795.732,182.55 808.846,196.328 832.916,196.328 C847.69,196.328 857.152,188.858 863.128,179.396 L850.678,168.274 C844.37,176.906 839.39,178.566 832.916,178.566 C819.802,178.566 815.652,169.768 815.652,158.978 L815.652,139.224 Z M896.992,70.5 L877.072,70.5 L877.072,195 L896.992,195 L896.992,128.6 C900.146,125.446 907.284,121.13 914.422,121.13 C923.718,121.13 929.03,125.612 929.03,138.394 L929.03,195 L948.95,195 L948.95,134.078 C948.95,115.984 941.148,101.874 921.394,101.874 C910.604,101.874 902.138,106.854 896.992,111.336 L896.992,70.5 Z M969.368,195 L993.604,195 L993.604,170.266 L969.368,170.266 L969.368,195 Z M1050.376,195.83 C1055.854,195.83 1062.826,194.502 1069.964,191.016 L1065.814,175.91 C1061.83,177.072 1057.016,178.068 1052.368,178.068 C1045.064,178.068 1042.408,175.08 1042.408,167.942 L1042.408,119.968 L1066.478,119.968 L1066.478,103.202 L1042.408,103.202 L1042.408,83.448 L1022.82,85.606 L1022.82,103.202 L1007.216,104.198 L1007.216,119.968 L1022.488,119.968 L1022.488,168.274 C1022.488,186.036 1030.456,195.83 1050.376,195.83 Z M1126.902,195 L1155.122,103.202 L1133.708,103.202 L1116.776,168.108 L1116.112,168.108 C1099.346,104.032 1099.18,103.202 1099.18,103.202 L1077.932,103.202 L1105.986,195 L1126.902,195 Z" id="dctech.tv" fill="#FFFFFF"></path>
    </g>
</svg>

<svg viewBox="0 0 1155 266" xmlns="http://www.w3.org/2000/svg"><g fill="none" fill-rule="evenodd"><path d="M0 89h366v146.085c0 12.462-9.539 22.851-21.956 23.913C289.434 263.666 235.752 266 183 266c-52.752 0-106.433-2.334-161.044-7.002C9.539 257.936 0 247.548 0 235.085V89zM282.421 3.564a2750.147 2750.147 0 0 0-71.993 5.972l-22.08 47.35 72.836-7.777 21.237-45.545zm30.722-1.995A3223.27 3223.27 0 0 1 340.769.032c13.237-.68 24.52 9.5 25.2 22.737a24 24 0 0 1 .031 1.232v13.914l-73.464 7.845 20.607-44.19zM179.135 12.756c-22.552 2.468-45.963 5.344-70.233 8.63l-21.585 46.29 69.679-7.441 22.14-47.479zM77.022 25.866a3682.38 3682.38 0 0 0-56.849 8.739C8.546 36.483 0 46.52 0 58.298V77l55.965-5.976 21.057-45.157z" fill="#FFF"/><g fill-rule="nonzero" fill="#E81B39"><path d="M185.275 130.627l-14.004 43.098 23.615 7.673z"/><path d="M186.617 130.627l14.004 43.098-23.615 7.673z"/><path d="M229.404 160.65h-45.366v24.479z"/><path d="M229.747 161.705l-36.702 26.666-14.388-19.804z"/><path d="M212.829 212.154l-14.02-43.146-23.28 7.564z"/><path d="M211.93 212.806l-36.702-26.665 14.389-19.805z"/><path d="M158.07 212.806l36.702-26.665-14.389-19.805z"/><path d="M157.171 212.154l14.02-43.146 23.28 7.564z"/><g><path d="M140.253 161.705l36.702 26.666 14.388-19.804z"/><path d="M140.596 160.65h45.366v24.479z"/></g></g><g fill-rule="nonzero" fill="#E81B39"><path d="M69.275 129.627L55.27 172.725l23.615 7.673z"/><path d="M70.617 129.627l14.004 43.098-23.615 7.673z"/><path d="M113.404 159.65H68.038v24.479z"/><path d="M113.747 160.705l-36.702 26.666-14.388-19.804z"/><path d="M96.829 211.154l-14.02-43.146-23.28 7.564z"/><path d="M95.93 211.806l-36.702-26.665 14.389-19.805z"/><path d="M42.07 211.806l36.702-26.665-14.389-19.805z"/><path d="M41.171 211.154l14.02-43.146 23.28 7.564z"/><g><path d="M24.253 160.705l36.702 26.666 14.388-19.804z"/><path d="M24.596 159.65h45.366v24.479z"/></g></g><g fill-rule="nonzero" fill="#E81B39"><path d="M301.275 129.627l-14.004 43.098 23.615 7.673z"/><path d="M302.617 129.627l14.004 43.098-23.615 7.673z"/><path d="M345.404 159.65h-45.366v24.479z"/><path d="M345.747 160.705l-36.702 26.666-14.388-19.804z"/><path d="M328.829 211.154l-14.02-43.146-23.28 7.564z"/><path d="M327.93 211.806l-36.702-26.665 14.389-19.805z"/><path d="M274.07 211.806l36.702-26.665-14.389-19.805z"/><path d="M273.171 211.154l14.02-43.146 23.28 7.564z"/><g><path d="M256.253 160.705l36.702 26.666 14.388-19.804z"/><path d="M256.596 159.65h45.366v24.479z"/></g></g><path d="M524.986 111.004V70.5h19.92V195h-15.77l-2.656-8.466c-4.648 5.312-13.28 9.794-22.576 9.794-20.086 0-30.378-13.446-30.378-35.69v-23.24c0-22.244 10.126-35.524 29.88-35.524 8.964 0 16.932 4.316 21.58 9.13zm0 59.096v-42.164c-3.818-3.984-9.794-7.304-15.936-7.304-11.122 0-15.604 6.142-15.604 18.924v19.09c0 12.782 4.482 18.924 15.604 18.924 6.142 0 12.118-3.486 15.936-7.47zm58.1-30.876c0-10.79 3.652-19.588 16.766-19.588 6.806 0 12.118 2.822 17.098 10.126l13.446-11.122c-6.474-9.794-15.77-16.766-30.544-16.766-24.07 0-36.686 13.778-36.686 35.69v23.074c0 21.912 13.114 35.69 37.184 35.69 14.774 0 24.236-7.47 30.212-16.932l-12.45-11.122c-6.308 8.632-11.288 10.292-17.762 10.292-13.114 0-17.264-8.798-17.264-19.588v-19.754zm97.276 56.606c5.478 0 12.45-1.328 19.588-4.814l-4.15-15.106c-3.984 1.162-8.798 2.158-13.446 2.158-7.304 0-9.96-2.988-9.96-10.126v-47.974h24.07v-16.766h-24.07V83.448l-19.588 2.158v17.596l-15.604.996v15.77h15.272v48.306c0 17.762 7.968 27.556 27.888 27.556zm32.038-32.37v-26.062c0-21.912 11.288-35.524 34.86-35.524 24.07 0 34.362 13.114 34.362 35.524v18.924H732.32v8.964c0 6.972 4.316 13.778 16.434 13.778 10.458 0 15.604-2.324 24.236-6.972l6.64 14.774c-9.296 5.312-17.762 9.462-31.706 9.462-23.738 0-35.524-12.45-35.524-32.868zm34.86-44.322c-11.952 0-14.94 6.308-14.94 21.58h29.88c0-14.442-2.822-21.58-14.94-21.58zm68.392 20.086c0-10.79 3.652-19.588 16.766-19.588 6.806 0 12.118 2.822 17.098 10.126l13.446-11.122c-6.474-9.794-15.77-16.766-30.544-16.766-24.07 0-36.686 13.778-36.686 35.69v23.074c0 21.912 13.114 35.69 37.184 35.69 14.774 0 24.236-7.47 30.212-16.932l-12.45-11.122c-6.308 8.632-11.288 10.292-17.762 10.292-13.114 0-17.264-8.798-17.264-19.588v-19.754zm81.34-68.724h-19.92V195h19.92v-66.4c3.154-3.154 10.292-7.47 17.43-7.47 9.296 0 14.608 4.482 14.608 17.264V195h19.92v-60.922c0-18.094-7.802-32.204-27.556-32.204-10.79 0-19.256 4.98-24.402 9.462V70.5zM969.368 195h24.236v-24.734h-24.236V195zm81.008.83c5.478 0 12.45-1.328 19.588-4.814l-4.15-15.106c-3.984 1.162-8.798 2.158-13.446 2.158-7.304 0-9.96-2.988-9.96-10.126v-47.974h24.07v-16.766h-24.07V83.448l-19.588 2.158v17.596l-15.604.996v15.77h15.272v48.306c0 17.762 7.968 27.556 27.888 27.556zm76.526-.83l28.22-91.798h-21.414l-16.932 64.906h-.664c-16.766-64.076-16.932-64.906-16.932-64.906h-21.248L1105.986 195h20.916z" fill="#FFF"/></g></svg>
